usr/share/icons/biglinux-icons-material-dark/22/actions/view-grid.svg

<svg xmlns="http://www.w3.org/2000/svg" viewBox="0 0 22 22">
<defs id="defs3051">
<style id="current-color-scheme" type="text/css">
.ColorScheme-Text{color:#dedede}
</style>
</defs>
<path d="M3 3v1h1V3zm5 0v1h1V3zm5 0v1h1V3zm5 0v1h1V3zM3 6v1h1V6zm5 0v1h1V6zm5 0v1h1V6zm5 0v1h1V6zM3 9v1h1V9zm5 0v1h1V9zm5 0v1h1V9zm5 0v1h1V9zM3 12v1h1v-1zm5 0v1h1v-1zm5 0v1h1v-1zm5 0v1h1v-1zM3 15v1h1v-1zm5 0v1h1v-1zm5 0v1h1v-1zm5 0v1h1v-1zM3 18v1h1v-1zm5 0v1h1v-1zm5 0v1h1v-1zm5 0v1h1v-1z" class="ColorScheme-Text" style="fill:currentColor;fill-opacity:1;stroke:none"/>
</svg>

<svg xmlns="http://www.w3.org/2000/svg" viewBox="0 0 22 22">
  <defs id="defs3051">
    <style type="text/css" id="current-color-scheme">
      .ColorScheme-Text {
        color:#dedede;
      }
      </style>
  </defs>
 <path 
     style="fill:currentColor;fill-opacity:1;stroke:none" 
     d="M 3 3 L 3 4 L 4 4 L 4 3 L 3 3 z M 8 3 L 8 4 L 9 4 L 9 3 L 8 3 z M 13 3 L 13 4 L 14 4 L 14 3 L 13 3 z M 18 3 L 18 4 L 19 4 L 19 3 L 18 3 z M 3 6 L 3 7 L 4 7 L 4 6 L 3 6 z M 8 6 L 8 7 L 9 7 L 9 6 L 8 6 z M 13 6 L 13 7 L 14 7 L 14 6 L 13 6 z M 18 6 L 18 7 L 19 7 L 19 6 L 18 6 z M 3 9 L 3 10 L 4 10 L 4 9 L 3 9 z M 8 9 L 8 10 L 9 10 L 9 9 L 8 9 z M 13 9 L 13 10 L 14 10 L 14 9 L 13 9 z M 18 9 L 18 10 L 19 10 L 19 9 L 18 9 z M 3 12 L 3 13 L 4 13 L 4 12 L 3 12 z M 8 12 L 8 13 L 9 13 L 9 12 L 8 12 z M 13 12 L 13 13 L 14 13 L 14 12 L 13 12 z M 18 12 L 18 13 L 19 13 L 19 12 L 18 12 z M 3 15 L 3 16 L 4 16 L 4 15 L 3 15 z M 8 15 L 8 16 L 9 16 L 9 15 L 8 15 z M 13 15 L 13 16 L 14 16 L 14 15 L 13 15 z M 18 15 L 18 16 L 19 16 L 19 15 L 18 15 z M 3 18 L 3 19 L 4 19 L 4 18 L 3 18 z M 8 18 L 8 19 L 9 19 L 9 18 L 8 18 z M 13 18 L 13 19 L 14 19 L 14 18 L 13 18 z M 18 18 L 18 19 L 19 19 L 19 18 L 18 18 z "
	 class="ColorScheme-Text"
     />
</svg>
